!!!!SEGMENT: Mou3019-Jay_mys_mon_cuer--Bologna_R142.krn
!!!id: Mou3019
!!!SMS: Bologna R142
!!!AGN: Secular work
!!!voices: 1
!!!COM: Jean Mouton
!!!OTL: J'ay mys mon cuer (Bologna R142)
**kern
*I"Tenor
*I'T
*clefGv2
*k[b-]
*F:
*M2/1
*met(C|)
=1
!LO:TX:a:t=Other voices not extant
0r
=2
1r
2r
2G
=3
1F
1G
=4
1A
2r
2A
=5
1.c
2c
=6
2B-y
4A
4G
2A
2A
=7
0G
=8
0r
=9
0r
=10
0r
=11
1r
1d
=12
1r
[1d
=13
2d]
2d
1d
=14
1.c
4B-y
4A
=15
1G
2r
2G
=16
1c
1d
=17
1A
1B-y
=18
0A
=19
0r
=20
0r
=21
1r
1d
=22
1.d
2d
=23
1.c
4B-y
4A
=24
1G
2r
2G
=25
1.c
2c
=26
1A
1A
=27
1F
1A
=28
0G
=29
0D
=30
1.A
2B-y
=31
1c
1c
=32
1.d
4c
4B-y
=33
1.c
2d
=34
2B-y
2c
1A
=35
1G
1r
=36
0r
=37
1r
1G
=38
1F
1G
=39
1A
2r
2A
=40
1.c
2c
=41
2B-y
4A
4G
2A
2A
=42
0G
=43
0r
=44
1r
2r
2G
=45
1F
1G
=46
1A
2r
2A
=47
1.c
2c
=48
2B-y
4A
4G
2A
2A
=49
0Gl
==
*-
!!!ENC: Benjamin Ory
!!!RDF**kern: i = editorial accidental
!!!RDF**kern: l = terminal long
!!!END: 2026/7/14
!!!EED: Benjamin Ory
!!!EEV: 2026/07/14
!!!YEC: Copyright 2026 Benjamin Ory, All Rights Reserved
!!!ONB: Translated from MusicXML on 2026/07/14
